X:341
T: Zuo junxie
N: C1842
O: China,Ningxia Yanchi
S: I, 176]
N: Han
R: Xiaodiao]
M: 2/4
L: 1/16
K: Bb
b4g2f2 | b4g2f2 | f4f4 | f2e2c4 |
f4g2b2 | c4f4 | f4g2f2 | f8 |
f3fg2b2 | c4f2g2 | f4g2f2 | f4f4

@@@ Tune index: 6896
